X: 3
T: Up Leitrim
R: jig
M: 6/8
L: 1/8
K: Dmaj
d2e|:f2e dAA|BAB dBA|f2e dBA| Bdf e2d:|
f2a gbb|faf fed|faa gab|afd e2d|
faa gbb|faf fed|f2e dBA|Bdf eag ||


Tune 3257	Setting 16325

